X:124
T:Matelote
R:Matelote
O:France
A:Provence
C:Trad.
M:6/8
L:1/8
K:Bb
d3f3 | edc d2B | d3f3 | edc | B3 | d3f3 | edc d2B | d3f3 | edc | B3 ||
dcB dcB | f2f f3 | GAB fed | c2c c3 | dcB dcB | f2f f3 | GAB GcA | B2B B3 |]
%%footer $D   Galouvielle-MBe 2008 \nMazurka (France)
